;START_OF_HEADER
;HEADER_VERSION:0.1
;FLAVOR:Griffin
;GENERATOR.NAME:Cura_SteamEngine
;GENERATOR.VERSION:4.2.1
;GENERATOR.BUILD_DATE:2019-08-01
;TARGET_MACHINE.NAME:Ultimaker 3
;EXTRUDER_TRAIN.0.INITIAL_TEMPERATURE:245
;EXTRUDER_TRAIN.0.MATERIAL.VOLUME_USED:5008
;EXTRUDER_TRAIN.0.MATERIAL.GUID:60636bb4-518f-42e7-8237-fe77b194ebe0
;EXTRUDER_TRAIN.0.NOZZLE.DIAMETER:0.4
;EXTRUDER_TRAIN.0.NOZZLE.NAME:AA 0.4
;BUILD_PLATE.TYPE:glass
;BUILD_PLATE.INITIAL_TEMPERATURE:80
;BUILD_VOLUME.TEMPERATURE:28
;PRINT.TIME:2205
;PRINT.GROUPS:1
;PRINT.SIZE.MIN.X:9
;PRINT.SIZE.MIN.Y:6
;PRINT.SIZE.MIN.Z:0.27
;PRINT.SIZE.MAX.X:152.43
;PRINT.SIZE.MAX.Y:125.43
;PRINT.SIZE.MAX.Z:9.07
;END_OF_HEADER
;Generated with Cura_SteamEngine 4.2.1
T0
M82 ;absolute extrusion mode

G92 E0
M109 S245
G0 F15000 X9 Y6 Z2
G280
G1 F1500 E-6.5
;LAYER_COUNT:45
;LAYER:0
M107
M204 S625
M205 X6 Y6
G0 F5000 X82.977 Y91.25 Z0.27
M204 S500
M205 X5 Y5
;TYPE:SKIRT
G1 F1500 E0
G1 F1200 X83.566 Y90.795 E0.01323
G1 X84.2 Y90.406 E0.02645
G1 X84.873 Y90.087 E0.03969
G1 X85.576 Y89.842 E0.05293
G1 X86.301 Y89.674 E0.06615
G1 X87.04 Y89.585 E0.07939
G1 X87.5 Y89.57 E0.08757
G1 X145.5 Y89.57 E1.11857
G1 X146.243 Y89.61 E1.1318
G1 X146.978 Y89.729 E1.14504
G1 X147.696 Y89.927 E1.15828
G1 X148.388 Y90.2 E1.1715
G1 X149.047 Y90.546 E1.18473
G1 X149.665 Y90.961 E1.19796
G1 X150.235 Y91.44 E1.2112
G1 X150.75 Y91.977 E1.22442
G1 X151.205 Y92.566 E1.23765
G1 X151.594 Y93.2 E1.25088
G1 X151.913 Y93.873 E1.26411
G1 X152.158 Y94.576 E1.27735
G1 X152.326 Y95.301 E1.29058
G1 X152.415 Y96.04 E1.30381
G1 X152.43 Y96.5 E1.31199
G1 X152.43 Y118.5 E1.70306
G1 X152.39 Y119.243 E1.71629
G1 X152.271 Y119.978 E1.72952
G1 X152.073 Y120.696 E1.74276
G1 X151.8 Y121.388 E1.75599
G1 X151.454 Y122.047 E1.76922
G1 X151.039 Y122.665 E1.78245
G1 X150.56 Y123.235 E1.79569
G1 X150.023 Y123.75 E1.80891
G1 X149.434 Y124.205 E1.82214
G1 X148.8 Y124.594 E1.83536
G1 X148.127 Y124.913 E1.8486
G1 X147.424 Y125.158 E1.86184
G1 X146.699 Y125.326 E1.87507
G1 X145.96 Y125.415 E1.8883
G1 X145.5 Y125.43 E1.89648
G1 X87.5 Y125.43 E2.92749
G1 X86.757 Y125.39 E2.94071
G1 X86.022 Y125.271 E2.95395
G1 X85.304 Y125.073 E2.96719
G1 X84.612 Y124.8 E2.98041
G1 X83.953 Y124.454 E2.99364
G1 X83.335 Y124.039 E3.00687
G1 X82.765 Y123.56 E3.02011
G1 X82.25 Y123.023 E3.03333
G1 X81.795 Y122.434 E3.04657
G1 X81.406 Y121.8 E3.05979
G1 X81.087 Y121.127 E3.07303
G1 X80.842 Y120.424 E3.08626
G1 X80.674 Y119.699 E3.09949
G1 X80.585 Y118.96 E3.11272
G1 X80.57 Y118.5 E3.1209
G1 X80.57 Y96.5 E3.51197
G1 X80.61 Y95.757 E3.5252
G1 X80.729 Y95.022 E3.53844
G1 X80.927 Y94.304 E3.55167
G1 X81.2 Y93.612 E3.5649
G1 X81.546 Y92.953 E3.57813
G1 X81.961 Y92.335 E3.59136
G1 X82.44 Y91.765 E3.6046
G1 X82.977 Y91.25 E3.61782
M204 S625
M205 X6 Y6
G0 F5000 X83.387 Y91.454
M204 S500
M205 X5 Y5
G1 F1200 X83.971 Y91.03 E3.63065
G1 X84.598 Y90.673 E3.64348
G1 X85.26 Y90.387 E3.6563
G1 X85.95 Y90.177 E3.66912
G1 X86.659 Y90.045 E3.68194
G1 X87.5 Y89.99 E3.69692
G1 X145.5 Y89.99 E4.72792
G1 X146.22 Y90.03 E4.74074
G1 X146.932 Y90.149 E4.75358
G1 X147.626 Y90.347 E4.7664
G1 X148.293 Y90.62 E4.77922
G1 X148.927 Y90.965 E4.79205
G1 X149.518 Y91.378 E4.80486
G1 X150.06 Y91.854 E4.81769
G1 X150.546 Y92.387 E4.83051
G1 X150.97 Y92.971 E4.84334
G1 X151.327 Y93.598 E4.85616
G1 X151.613 Y94.26 E4.86898
G1 X151.823 Y94.95 E4.8818
G1 X151.955 Y95.659 E4.89462
G1 X152.01 Y96.5 E4.9096
G1 X152.01 Y118.5 E5.30067
G1 X151.97 Y119.22 E5.31349
G1 X151.851 Y119.932 E5.32632
G1 X151.653 Y120.626 E5.33915
G1 X151.38 Y121.293 E5.35196
G1 X151.035 Y121.927 E5.3648
G1 X150.622 Y122.518 E5.37761
G1 X150.146 Y123.06 E5.39043
G1 X149.613 Y123.546 E5.40326
G1 X149.029 Y123.97 E5.41608
G1 X148.402 Y124.327 E5.42891
G1 X147.74 Y124.613 E5.44173
G1 X147.05 Y124.823 E5.45455
G1 X146.341 Y124.955 E5.46737
G1 X145.5 Y125.01 E5.48235
G1 X87.5 Y125.01 E6.51336
G1 X86.78 Y124.97 E6.52618
G1 X86.068 Y124.851 E6.53901
G1 X85.374 Y124.653 E6.55184
G1 X84.707 Y124.38 E6.56465
G1 X84.073 Y124.035 E6.57748
G1 X83.482 Y123.622 E6.5903
G1 X82.94 Y123.146 E6.60312
G1 X82.454 Y122.613 E6.61594
G1 X82.03 Y122.029 E6.62877
G1 X81.673 Y121.402 E6.64159
G1 X81.387 Y120.74 E6.65441
G1 X81.177 Y120.05 E6.66723
G1 X81.045 Y119.341 E6.68005
G1 X80.99 Y118.5 E6.69504
G1 X80.99 Y96.5 E7.08611
G1 X81.03 Y95.78 E7.09893
G1 X81.149 Y95.068 E7.11176
G1 X81.347 Y94.374 E7.12459
G1 X81.62 Y93.707 E7.1374
G1 X81.965 Y93.073 E7.15023
G1 X82.378 Y92.482 E7.16304
G1 X82.854 Y91.94 E7.17587
G1 X83.387 Y91.454 E7.18869
M204 S625
M205 X6 Y6
G0 F5000 X83.268 Y92.121
M204 S500
M205 X5 Y5
G1 F1200 X83.796 Y91.666 E7.20108
G1 X84.373 Y91.274 E7.21348
G1 X84.992 Y90.951 E7.22589
G1 X85.643 Y90.7 E7.23829
G1 X86.319 Y90.526 E7.2507
G1 X87.01 Y90.43 E7.2631
G1 X87.5 Y90.41 E7.27182
G1 X145.5 Y90.41 E8.30283
G1 X146.197 Y90.45 E8.31524
G1 X146.884 Y90.569 E8.32763
G1 X147.553 Y90.767 E8.34003
G1 X148.196 Y91.039 E8.35244
G1 X148.802 Y91.383 E8.36483
G1 X149.366 Y91.795 E8.37725
G1 X149.879 Y92.268 E8.38965
G1 X150.334 Y92.796 E8.40204
G1 X150.726 Y93.373 E8.41444
G1 X151.049 Y93.992 E8.42685
G1 X151.3 Y94.643 E8.43925
G1 X151.474 Y95.319 E8.45166
G1 X151.57 Y96.01 E8.46406
G1 X151.59 Y96.5 E8.47278
G1 X151.59 Y118.5 E8.86385
G1 X151.55 Y119.197 E8.87626
G1 X151.431 Y119.884 E8.88866
G1 X151.233 Y120.553 E8.90106
G1 X150.961 Y121.196 E8.91347
G1 X150.617 Y121.802 E8.92586
G1 X150.205 Y122.366 E8.93827
G1 X149.732 Y122.879 E8.95067
G1 X149.204 Y123.334 E8.96306
G1 X148.627 Y123.726 E8.97546
G1 X148.008 Y124.049 E8.98788
G1 X147.357 Y124.3 E9.00028
G1 X146.681 Y124.474 E9.01269
G1 X145.99 Y124.57 E9.02509
G1 X145.5 Y124.59 E9.0338
G1 X87.5 Y124.59 E10.06481
G1 X86.803 Y124.55 E10.07722
G1 X86.116 Y124.431 E10.08962
G1 X85.447 Y124.233 E10.10202
G1 X84.804 Y123.961 E10.11443
G1 X84.198 Y123.617 E10.12682
G1 X83.634 Y123.205 E10.13923
G1 X83.121 Y122.732 E10.15163
G1 X82.666 Y122.204 E10.16402
G1 X82.274 Y121.627 E10.17642
G1 X81.951 Y121.008 E10.18884
G1 X81.7 Y120.357 E10.20124
G1 X81.526 Y119.681 E10.21365
G1 X81.43 Y118.99 E10.22605
G1 X81.41 Y118.5 E10.23476
G1 X81.41 Y96.5 E10.62584
G1 X81.45 Y95.803 E10.63825
G1 X81.569 Y95.116 E10.65064
G1 X81.767 Y94.447 E10.66304
G1 X82.039 Y93.804 E10.67545
G1 X82.383 Y93.198 E10.68784
G1 X82.795 Y92.634 E10.70026
G1 X83.268 Y92.121 E10.71266
M204 S625
M205 X6 Y6
G0 F5000 X83.68 Y92.31
M204 S500
M205 X5 Y5
G1 F1200 X84.204 Y91.887 E10.72463
G1 X84.774 Y91.528 E10.7366
G1 X85.382 Y91.24 E10.74856
G1 X86.02 Y91.026 E10.76053
G1 X86.68 Y90.89 E10.7725
G1 X87.5 Y90.83 E10.78712
G1 X145.5 Y90.83 E11.81813
G1 X146.172 Y90.87 E11.83009
G1 X146.835 Y90.989 E11.84207
G1 X147.478 Y91.186 E11.85402
G1 X148.094 Y91.458 E11.86599
G1 X148.673 Y91.801 E11.87795
G1 X149.208 Y92.21 E11.88992
G1 X149.69 Y92.68 E11.90189
G1 X150.113 Y93.204 E11.91386
G1 X150.472 Y93.774 E11.92584
G1 X150.76 Y94.382 E11.9378
G1 X150.974 Y95.02 E11.94976
G1 X151.11 Y95.68 E11.96174
G1 X151.17 Y96.5 E11.97635
G1 X151.17 Y118.5 E12.36742
G1 X151.13 Y119.172 E12.37939
G1 X151.011 Y119.835 E12.39136
G1 X150.814 Y120.478 E12.40332
G1 X150.542 Y121.094 E12.41529
G1 X150.199 Y121.673 E12.42725
G1 X149.79 Y122.208 E12.43922
G1 X149.32 Y122.69 E12.45119
G1 X148.796 Y123.113 E12.46316
G1 X148.226 Y123.472 E12.47513
G1 X147.618 Y123.76 E12.48709
G1 X146.98 Y123.974 E12.49906
G1 X146.32 Y124.11 E12.51103
G1 X145.5 Y124.17 E12.52565
G1 X87.5 Y124.17 E13.55666
G1 X86.828 Y124.13 E13.56862
G1 X86.165 Y124.011 E13.5806
G1 X85.522 Y123.814 E13.59255
G1 X84.906 Y123.542 E13.60452
G1 X84.327 Y123.199 E13.61648
G1 X83.792 Y122.79 E13.62845
G1 X83.31 Y122.32 E13.64042
G1 X82.887 Y121.796 E13.65239
G1 X82.528 Y121.226 E13.66437
G1 X82.24 Y120.618 E13.67633
G1 X82.026 Y119.98 E13.68829
G1 X81.89 Y119.32 E13.70027
G1 X81.83 Y118.5 E13.71488
G1 X81.83 Y96.5 E14.10595
G1 X81.87 Y95.828 E14.11792
G1 X81.989 Y95.165 E14.12989
G1 X82.186 Y94.522 E14.14185
G1 X82.458 Y93.906 E14.15382
G1 X82.801 Y93.327 E14.16578
G1 X83.21 Y92.792 E14.17775
G1 X83.68 Y92.31 E14.18972
M204 S625
M205 X6 Y6
G0 F5000 X84.092 Y92.507
M204 S500
M205 X5 Y5
G1 F1200 X84.609 Y92.118 E14.20122
G1 X85.171 Y91.795 E14.21274
G1 X85.768 Y91.544 E14.22425
G1 X86.392 Y91.368 E14.23578
G1 X87.032 Y91.271 E14.24729
G1 X87.5 Y91.25 E14.25561
G1 X145.5 Y91.25 E15.28662
G1 X146.147 Y91.29 E15.29814
G1 X146.783 Y91.409 E15.30964
G1 X147.4 Y91.606 E15.32116
G1 X147.989 Y91.877 E15.33268
G1 X148.539 Y92.219 E15.3442
G1 X149.043 Y92.626 E15.35571
G1 X149.493 Y93.092 E15.36723
G1 X149.882 Y93.609 E15.37873
G1 X150.205 Y94.171 E15.39025
G1 X150.456 Y94.768 E15.40176
G1 X150.632 Y95.392 E15.41329
G1 X150.729 Y96.032 E15.42479
G1 X150.75 Y96.5 E15.43312
G1 X150.75 Y118.5 E15.82419
G1 X150.71 Y119.147 E15.83572
G1 X150.591 Y119.783 E15.84722
G1 X150.394 Y120.4 E15.85873
G1 X150.123 Y120.989 E15.87026
G1 X149.781 Y121.539 E15.88177
G1 X149.374 Y122.043 E15.89328
G1 X148.908 Y122.493 E15.9048
G1 X148.391 Y122.882 E15.9163
G1 X147.829 Y123.205 E15.92782
G1 X147.232 Y123.456 E15.93934
G1 X146.608 Y123.632 E15.95086
G1 X145.968 Y123.729 E15.96237
G1 X145.5 Y123.75 E15.97069
G1 X87.5 Y123.75 E17.0017
G1 X86.853 Y123.71 E17.01322
G1 X86.217 Y123.591 E17.02473
G1 X85.6 Y123.394 E17.03624
G1 X85.011 Y123.123 E17.04776
G1 X84.461 Y122.781 E17.05928
G1 X83.957 Y122.374 E17.07079
G1 X83.507 Y121.908 E17.08231
G1 X83.118 Y121.391 E17.09381
G1 X82.795 Y120.829 E17.10533
G1 X82.544 Y120.232 E17.11684
G1 X82.368 Y119.608 E17.12837
G1 X82.271 Y118.968 E17.13988
G1 X82.25 Y118.5 E17.1482
G1 X82.25 Y96.5 E17.53927
G1 X82.29 Y95.853 E17.5508
G1 X82.409 Y95.217 E17.5623
G1 X82.606 Y94.6 E17.57381
G1 X82.877 Y94.011 E17.58534
G1 X83.219 Y93.461 E17.59685
G1 X83.626 Y92.957 E17.60837
G1 X84.092 Y92.507 E17.61988
M204 S625
M205 X6 Y6
G0 F5000 X84.502 Y92.713
M204 S500
M205 X5 Y5
G1 F1200 X85.012 Y92.36 E17.63091
G1 X85.564 Y92.075 E17.64195
G1 X86.149 Y91.863 E17.65301
G1 X86.755 Y91.728 E17.66405
G1 X87.5 Y91.67 E17.67733
G1 X145.5 Y91.67 E18.70834
G1 X146.12 Y91.71 E18.71938
G1 X146.73 Y91.829 E18.73043
G1 X147.319 Y92.026 E18.74147
G1 X147.878 Y92.296 E18.7525
G1 X148.398 Y92.636 E18.76355
G1 X148.87 Y93.04 E18.77459
G1 X149.287 Y93.502 E18.78565
G1 X149.64 Y94.012 E18.79668
G1 X149.925 Y94.564 E18.80772
G1 X150.137 Y95.149 E18.81878
G1 X150.272 Y95.755 E18.82982
G1 X150.33 Y96.5 E18.8431
G1 X150.33 Y118.5 E19.23417
G1 X150.29 Y119.12 E19.24522
G1 X150.171 Y119.73 E19.25627
G1 X149.974 Y120.319 E19.26731
G1 X149.704 Y120.878 E19.27834
G1 X149.364 Y121.398 E19.28939
G1 X148.96 Y121.87 E19.30043
G1 X148.498 Y122.287 E19.31149
G1 X147.988 Y122.64 E19.32252
G1 X147.436 Y122.925 E19.33356
G1 X146.851 Y123.137 E19.34462
G1 X146.245 Y123.272 E19.35566
G1 X145.5 Y123.33 E19.36894
G1 X87.5 Y123.33 E20.39995
G1 X86.88 Y123.29 E20.41099
G1 X86.27 Y123.171 E20.42204
G1 X85.681 Y122.974 E20.43308
G1 X85.122 Y122.704 E20.44412
G1 X84.602 Y122.364 E20.45516
G1 X84.13 Y121.96 E20.4662
G1 X83.713 Y121.498 E20.47727
G1 X83.36 Y120.988 E20.48829
G1 X83.075 Y120.436 E20.49933
G1 X82.863 Y119.851 E20.5104
G1 X82.728 Y119.245 E20.52143
G1 X82.67 Y118.5 E20.53472
G1 X82.67 Y96.5 E20.92579
G1 X82.71 Y95.88 E20.93683
G1 X82.829 Y95.27 E20.94788
G1 X83.026 Y94.681 E20.95892
G1 X83.296 Y94.122 E20.96995
G1 X83.636 Y93.602 E20.981
G1 X84.04 Y93.13 E20.99204
G1 X84.502 Y92.713 E21.0031
M204 S625
M205 X6 Y6
G0 F5000 X84.454 Y93.311
M204 S500
M205 X5 Y5
G1 F1200 X84.91 Y92.931 E21.01366
G1 X85.413 Y92.615 E21.02422
G1 X85.953 Y92.37 E21.03476
G1 X86.522 Y92.2 E21.04531
G1 X87.108 Y92.107 E21.05586
G1 X87.5 Y92.09 E21.06283
G1 X145.5 Y92.09 E22.09384
G1 X146.092 Y92.13 E22.10439
G1 X146.674 Y92.249 E22.11495
G1 X147.234 Y92.445 E22.12549
G1 X147.763 Y92.715 E22.13605
G1 X148.251 Y93.053 E22.1466
G1 X148.689 Y93.454 E22.15716
G1 X149.069 Y93.91 E22.16771
G1 X149.385 Y94.413 E22.17827
G1 X149.63 Y94.953 E22.18881
G1 X149.8 Y95.522 E22.19937
G1 X149.893 Y96.108 E22.20992
G1 X149.91 Y96.5 E22.21689
G1 X149.91 Y118.5 E22.60796
G1 X149.87 Y119.092 E22.61851
G1 X149.751 Y119.674 E22.62907
G1 X149.555 Y120.234 E22.63962
G1 X149.285 Y120.763 E22.65017
G1 X148.947 Y121.251 E22.66073
G1 X148.546 Y121.689 E22.67128
G1 X148.09 Y122.069 E22.68183
G1 X147.587 Y122.385 E22.69239
G1 X147.047 Y122.63 E22.70293
G1 X146.478 Y122.8 E22.71349
G1 X145.892 Y122.893 E22.72404
G1 X145.5 Y122.91 E22.73101
G1 X87.5 Y122.91 E23.76202
G1 X86.908 Y122.87 E23.77257
G1 X86.326 Y122.751 E23.78312
G1 X85.766 Y122.555 E23.79367
G1 X85.237 Y122.285 E23.80423
G1 X84.749 Y121.947 E23.81478
G1 X84.311 Y121.546 E23.82534
G1 X83.931 Y121.09 E23.83589
G1 X83.615 Y120.587 E23.84645
G1 X83.37 Y120.047 E23.85699
G1 X83.2 Y119.478 E23.86755
G1 X83.107 Y118.892 E23.87809
G1 X83.09 Y118.5 E23.88507
G1 X83.09 Y96.5 E24.27614
G1 X83.13 Y95.908 E24.28669
G1 X83.249 Y95.326 E24.29725
G1 X83.445 Y94.766 E24.30779
G1 X83.715 Y94.237 E24.31835
G1 X84.053 Y93.749 E24.3289
G1 X84.454 Y93.311 E24.33946
M204 S625
M205 X6 Y6
G0 F5000 X84.866 Y93.503
M204 S500
M205 X5 Y5
G1 F1200 X85.315 Y93.161 E24.34949
G1 X85.809 Y92.886 E24.35954
G1 X86.336 Y92.684 E24.36957
G1 X86.886 Y92.558 E24.3796
G1 X87.5 Y92.51 E24.39055
G1 X145.5 Y92.51 E25.42156
G1 X146.063 Y92.55 E25.43159
G1 X146.615 Y92.669 E25.44163
G1 X147.145 Y92.865 E25.45167
G1 X147.641 Y93.133 E25.4617
G1 X148.095 Y93.469 E25.47174
G1 X148.497 Y93.866 E25.48178
G1 X148.839 Y94.315 E25.49181
G1 X149.114 Y94.809 E25.50186
G1 X149.316 Y95.336 E25.51189
G1 X149.442 Y95.886 E25.52192
G1 X149.49 Y96.5 E25.53287
G1 X149.49 Y118.5 E25.92394
G1 X149.45 Y119.063 E25.93398
G1 X149.331 Y119.615 E25.94401
G1 X149.135 Y120.145 E25.95406
G1 X148.867 Y120.641 E25.96408
G1 X148.531 Y121.095 E25.97412
G1 X148.134 Y121.497 E25.98416
G1 X147.685 Y121.839 E25.9942
G1 X147.191 Y122.114 E26.00425
G1 X146.664 Y122.316 E26.01428
G1 X146.114 Y122.442 E26.02431
G1 X145.5 Y122.49 E26.03526
G1 X87.5 Y122.49 E27.06626
G1 X86.937 Y122.45 E27.0763
G1 X86.385 Y122.331 E27.08634
G1 X85.855 Y122.135 E27.09638
G1 X85.359 Y121.867 E27.1064
G1 X84.905 Y121.531 E27.11644
G1 X84.503 Y121.134 E27.12649
G1 X84.161 Y120.685 E27.13652
G1 X83.886 Y120.191 E27.14657
G1 X83.684 Y119.664 E27.1566
G1 X83.558 Y119.114 E27.16663
G1 X83.51 Y118.5 E27.17758
G1 X83.51 Y96.5 E27.56865
G1 X83.55 Y95.937 E27.57868
G1 X83.669 Y95.385 E27.58872
G1 X83.865 Y94.855 E27.59877
G1 X84.133 Y94.359 E27.60879
G1 X84.469 Y93.905 E27.61883
G1 X84.866 Y93.503 E27.62887
M204 S625
M205 X6 Y6
G0 F5000 X85.276 Y93.707
M204 S500
M205 X5 Y5
G1 F1200 X85.718 Y93.407 E27.63837
G1 X86.199 Y93.175 E27.64786
G1 X86.71 Y93.019 E27.65736
G1 X87.5 Y92.93 E27.67149
G1 X145.5 Y92.93 E28.7025
G1 X146.033 Y92.97 E28.712
G1 X146.553 Y93.089 E28.72148
G1 X147.05 Y93.284 E28.73097
G1 X147.513 Y93.551 E28.74047
G1 X147.93 Y93.885 E28.74997
G1 X148.293 Y94.276 E28.75945
G1 X148.593 Y94.718 E28.76895
G1 X148.825 Y95.199 E28.77844
G1 X148.981 Y95.71 E28.78794
G1 X149.07 Y96.5 E28.80207
G1 X149.07 Y118.5 E29.19314
G1 X149.03 Y119.033 E29.20264
G1 X148.911 Y119.553 E29.21212
G1 X148.716 Y120.05 E29.22162
G1 X148.449 Y120.513 E29.23112
G1 X148.115 Y120.93 E29.24061
G1 X147.724 Y121.293 E29.2501
G1 X147.282 Y121.593 E29.25959
G1 X146.801 Y121.825 E29.26909
G1 X146.29 Y121.981 E29.27858
G1 X145.5 Y122.07 E29.29271
G1 X87.5 Y122.07 E30.32372
G1 X86.967 Y122.03 E30.33322
G1 X86.447 Y121.911 E30.34271
G1 X85.95 Y121.716 E30.3522
G1 X85.487 Y121.449 E30.3617
G1 X85.07 Y121.115 E30.37119
G1 X84.707 Y120.724 E30.38068
G1 X84.407 Y120.282 E30.39017
G1 X84.175 Y119.801 E30.39967
G1 X84.019 Y119.29 E30.40916
G1 X83.93 Y118.5 E30.4233
G1 X83.93 Y96.5 E30.81437
G1 X83.97 Y95.967 E30.82387
G1 X84.089 Y95.447 E30.83335
G1 X84.284 Y94.95 E30.84284
G1 X84.551 Y94.487 E30.85234
G1 X84.885 Y94.07 E30.86184
G1 X85.276 Y93.707 E30.87132
M204 S625
M205 X6 Y6
G0 F5000 X85.299 Y94.247
M204 S500
M205 X5 Y5
G1 F1200 X85.684 Y93.926 E30.88023
G1 X86.116 Y93.67 E30.88916
G1 X86.583 Y93.487 E30.89808
G1 X87.072 Y93.379 E30.90698
G1 X87.5 Y93.35 E30.9146
G1 X145.5 Y93.35 E31.94561
G1 X146 Y93.39 E31.95453
G1 X146.487 Y93.509 E31.96344
G1 X146.95 Y93.703 E31.97236
