;START_OF_HEADER
;HEADER_VERSION:0.1
;FLAVOR:Griffin
;GENERATOR.NAME:Cura_SteamEngine
;GENERATOR.VERSION:4.2.1
;GENERATOR.BUILD_DATE:2019-08-01
;TARGET_MACHINE.NAME:Ultimaker 3
;EXTRUDER_TRAIN.0.INITIAL_TEMPERATURE:260
;EXTRUDER_TRAIN.0.MATERIAL.VOLUME_USED:7089
;EXTRUDER_TRAIN.0.MATERIAL.GUID:84c1ea78-3186-48ed-a1cc-1be59322f5e1
;EXTRUDER_TRAIN.0.NOZZLE.DIAMETER:0.4
;EXTRUDER_TRAIN.0.NOZZLE.NAME:AA 0.4
;BUILD_PLATE.TYPE:glass
;BUILD_PLATE.INITIAL_TEMPERATURE:90
;BUILD_VOLUME.TEMPERATURE:28
;PRINT.TIME:6233
;PRINT.GROUPS:1
;PRINT.SIZE.MIN.X:9
;PRINT.SIZE.MIN.Y:6
;PRINT.SIZE.MIN.Z:0.27
;PRINT.SIZE.MAX.X:143.43
;PRINT.SIZE.MAX.Y:134.43
;PRINT.SIZE.MAX.Z:16.95
;END_OF_HEADER
;Generated with Cura_SteamEngine 4.2.1
T0
M82 ;absolute extrusion mode

G92 E0
M109 S260
G0 F15000 X9 Y6 Z2
G280
G1 F1500 E-5
;LAYER_COUNT:140
;LAYER:0
M107
M204 S625
M205 X6 Y6
G0 F5454.5 X91.933 Y83.45 Z0.27
M204 S500
M205 X5 Y5
;TYPE:SKIRT
G1 F1500 E0
G1 F1200 X92.561 Y82.837 E0.0156
G1 X92.804 Y82.628 E0.0213
G1 X93.394 Y82.174 E0.03453
G1 X94.179 Y81.706 E0.05078
G1 X94.731 Y81.425 E0.06179
G1 X95.412 Y81.124 E0.07502
G1 X96.23 Y80.869 E0.09025
G1 X96.541 Y80.793 E0.09594
G1 X97.272 Y80.655 E0.10917
G1 X98.162 Y80.595 E0.12502
G1 X105.529 Y80.57 E0.25598
G1 X134.501 Y80.57 E0.77099
G1 X135.244 Y80.61 E0.78421
G1 X136.113 Y80.76 E0.79989
G1 X137.02 Y80.977 E0.81647
G1 X137.734 Y81.189 E0.82971
G1 X138.421 Y81.476 E0.84294
G1 X139.073 Y81.835 E0.85617
G1 X139.474 Y82.105 E0.86477
G1 X139.975 Y82.468 E0.87576
G1 X140.553 Y82.937 E0.88899
G1 X141.165 Y83.563 E0.90456
G1 X141.373 Y83.805 E0.91023
G1 X141.827 Y84.395 E0.92346
G1 X142.291 Y85.174 E0.93958
G1 X142.573 Y85.727 E0.95061
G1 X142.875 Y86.407 E0.96384
G1 X143.13 Y87.225 E0.97907
G1 X143.206 Y87.535 E0.98475
G1 X143.344 Y88.266 E0.99797
G1 X143.405 Y89.161 E1.01392
G1 X143.43 Y96.529 E1.14489
G1 X143.43 Y125.499 E1.65986
G1 X143.347 Y126.571 E1.67897
G1 X143.252 Y127.178 E1.68989
G1 X143.097 Y127.906 E1.70313
G1 X142.822 Y128.723 E1.71845
G1 X142.698 Y129.027 E1.72428
G1 X142.38 Y129.7 E1.73752
G1 X141.897 Y130.47 E1.75367
G1 X141.537 Y130.968 E1.7646
G1 X141.069 Y131.547 E1.77783
G1 X140.442 Y132.161 E1.79343
G1 X140.198 Y132.371 E1.79915
G1 X139.608 Y132.825 E1.81239
G1 X138.821 Y133.294 E1.82867
G1 X138.269 Y133.575 E1.83968
G1 X137.588 Y133.876 E1.85292
G1 X136.775 Y134.13 E1.86806
G1 X136.465 Y134.206 E1.87373
G1 X135.734 Y134.344 E1.88696
G1 X134.97 Y134.403 E1.90058
G1 X133.852 Y134.428 E1.92046
G1 X133.697 Y134.43 E1.92321
G1 X98.502 Y134.43 E2.54884
G1 X97.434 Y134.347 E2.56788
G1 X96.825 Y134.252 E2.57884
G1 X96.097 Y134.098 E2.59206
G1 X95.268 Y133.819 E2.60761
G1 X94.965 Y133.695 E2.61343
G1 X94.293 Y133.376 E2.62665
G1 X93.528 Y132.896 E2.64271
G1 X93.029 Y132.535 E2.65366
G1 X92.45 Y132.067 E2.66689
G1 X91.837 Y131.439 E2.68249
G1 X91.628 Y131.196 E2.68819
G1 X91.174 Y130.606 E2.70142
G1 X90.706 Y129.821 E2.71767
G1 X90.425 Y129.269 E2.72868
G1 X90.124 Y128.588 E2.74191
G1 X89.87 Y127.775 E2.75705
G1 X89.794 Y127.465 E2.76273
G1 X89.656 Y126.734 E2.77595
G1 X89.595 Y125.82 E2.79223
G1 X89.57 Y89.506 E3.43775
G1 X89.653 Y88.429 E3.45695
G1 X89.748 Y87.822 E3.46787
G1 X89.903 Y87.094 E3.4811
G1 X90.178 Y86.277 E3.49643
G1 X90.302 Y85.973 E3.50226
G1 X90.62 Y85.3 E3.5155
G1 X91.104 Y84.528 E3.53169
G1 X91.465 Y84.029 E3.54264
G1 X91.933 Y83.45 E3.55588
M204 S625
M205 X6 Y6
G0 F5454.5 X92.26 Y83.715
M204 S500
M205 X5 Y5
G1 F1200 X92.835 Y83.155 E3.57014
G1 X93.078 Y82.946 E3.57584
G1 X93.65 Y82.507 E3.58866
G1 X94.37 Y82.08 E3.60354
G1 X94.922 Y81.799 E3.61455
G1 X95.582 Y81.508 E3.62737
G1 X96.33 Y81.277 E3.64129
G1 X96.641 Y81.201 E3.64698
G1 X97.35 Y81.069 E3.6598
G1 X98.164 Y81.015 E3.6743
G1 X105.531 Y80.99 E3.80525
G1 X134.501 Y80.99 E4.32022
G1 X135.221 Y81.03 E4.33304
G1 X136.016 Y81.169 E4.34739
G1 X136.923 Y81.386 E4.36397
G1 X137.614 Y81.592 E4.37678
G1 X138.278 Y81.874 E4.38961
G1 X138.907 Y82.227 E4.40243
G1 X139.228 Y82.445 E4.40933
G1 X139.729 Y82.808 E4.42033
G1 X140.288 Y83.263 E4.43314
G1 X140.846 Y83.837 E4.44737
G1 X141.054 Y84.079 E4.45304
G1 X141.493 Y84.651 E4.46586
G1 X141.916 Y85.365 E4.48061
G1 X142.198 Y85.918 E4.49164
G1 X142.49 Y86.577 E4.50446
G1 X142.722 Y87.325 E4.51838
G1 X142.798 Y87.635 E4.52405
G1 X142.93 Y88.344 E4.53687
G1 X142.985 Y89.163 E4.55146
G1 X143.01 Y96.531 E4.68244
G1 X143.01 Y125.499 E5.19737
G1 X142.932 Y126.506 E5.21533
G1 X142.837 Y127.113 E5.22625
G1 X142.686 Y127.818 E5.23906
G1 X142.433 Y128.565 E5.25308
G1 X142.309 Y128.869 E5.25892
G1 X142 Y129.521 E5.27174
G1 X141.557 Y130.224 E5.28652
G1 X141.197 Y130.722 E5.29744
G1 X140.742 Y131.282 E5.31026
G1 X140.168 Y131.842 E5.32452
G1 X139.924 Y132.052 E5.33024
G1 X139.352 Y132.492 E5.34307
G1 X138.63 Y132.92 E5.35799
G1 X138.078 Y133.201 E5.369
G1 X137.418 Y133.492 E5.38182
G1 X136.675 Y133.722 E5.39565
G1 X136.365 Y133.798 E5.40132
G1 X135.656 Y133.93 E5.41414
G1 X134.961 Y133.983 E5.42653
G1 X133.843 Y134.008 E5.44641
G1 X133.697 Y134.01 E5.44901
G1 X98.502 Y134.01 E6.07463
G1 X97.499 Y133.932 E6.09251
G1 X96.89 Y133.837 E6.10347
G1 X96.184 Y133.687 E6.1163
G1 X95.427 Y133.43 E6.13051
G1 X95.124 Y133.306 E6.13633
G1 X94.473 Y132.996 E6.14915
G1 X93.774 Y132.555 E6.16384
G1 X93.275 Y132.194 E6.17479
G1 X92.715 Y131.74 E6.1876
G1 X92.155 Y131.165 E6.20187
G1 X91.946 Y130.922 E6.20757
G1 X91.507 Y130.35 E6.22039
G1 X91.08 Y129.63 E6.23527
G1 X90.799 Y129.078 E6.24628
G1 X90.508 Y128.418 E6.2591
G1 X90.278 Y127.675 E6.27292
G1 X90.202 Y127.365 E6.2786
G1 X90.07 Y126.656 E6.29142
G1 X90.015 Y125.819 E6.30633
G1 X89.99 Y89.505 E6.95185
G1 X90.068 Y88.494 E6.96987
G1 X90.163 Y87.887 E6.98079
G1 X90.314 Y87.182 E6.99361
G1 X90.567 Y86.435 E7.00763
G1 X90.691 Y86.131 E7.01346
G1 X91 Y85.479 E7.02629
G1 X91.445 Y84.774 E7.04111
G1 X91.806 Y84.275 E7.05206
G1 X92.26 Y83.715 E7.06487
M204 S625
M205 X6 Y6
G0 F5454.5 X92.587 Y83.98
M204 S500
M205 X5 Y5
G1 F1200 X93.109 Y83.474 E7.0778
G1 X93.352 Y83.265 E7.08349
G1 X93.906 Y82.841 E7.09589
G1 X94.56 Y82.455 E7.10939
G1 X95.112 Y82.174 E7.1204
G1 X95.751 Y81.893 E7.13281
G1 X96.429 Y81.685 E7.14542
G1 X96.74 Y81.609 E7.15111
G1 X97.426 Y81.483 E7.16351
G1 X98.165 Y81.435 E7.17667
G1 X105.532 Y81.41 E7.30763
G1 X134.501 Y81.41 E7.82258
G1 X135.198 Y81.45 E7.83499
G1 X135.918 Y81.577 E7.84799
G1 X136.825 Y81.794 E7.86457
G1 X137.493 Y81.995 E7.87697
G1 X138.134 Y82.271 E7.88937
G1 X138.981 Y82.785 E7.90698
G1 X139.482 Y83.148 E7.91798
G1 X140.023 Y83.589 E7.93039
G1 X140.527 Y84.11 E7.94327
G1 X140.735 Y84.352 E7.94895
G1 X141.159 Y84.907 E7.96136
G1 X141.542 Y85.555 E7.97474
G1 X141.824 Y86.108 E7.98578
G1 X142.105 Y86.747 E7.99818
G1 X142.314 Y87.425 E8.0108
G1 X142.39 Y87.735 E8.01647
G1 X142.517 Y88.421 E8.02887
G1 X142.565 Y89.164 E8.04211
G1 X142.59 Y96.532 E8.17308
G1 X142.59 Y125.499 E8.688
G1 X142.517 Y126.441 E8.70479
G1 X142.422 Y127.048 E8.71571
G1 X142.275 Y127.73 E8.72812
G1 X142.044 Y128.406 E8.74081
G1 X141.92 Y128.71 E8.74665
G1 X141.62 Y129.34 E8.75905
G1 X141.216 Y129.978 E8.77248
G1 X140.856 Y130.476 E8.7834
G1 X140.416 Y131.017 E8.7958
G1 X139.894 Y131.524 E8.80873
G1 X139.65 Y131.734 E8.81445
G1 X139.096 Y132.158 E8.82686
G1 X138.44 Y132.545 E8.84039
G1 X137.888 Y132.826 E8.85141
G1 X137.249 Y133.107 E8.86381
G1 X136.575 Y133.314 E8.87635
G1 X136.265 Y133.39 E8.88202
G1 X135.579 Y133.517 E8.89442
G1 X134.951 Y133.563 E8.90562
G1 X133.833 Y133.588 E8.92549
G1 X133.697 Y133.59 E8.92791
G1 X98.502 Y133.59 E9.55354
G1 X97.563 Y133.517 E9.57028
G1 X96.954 Y133.422 E9.58124
G1 X96.272 Y133.275 E9.59364
G1 X95.586 Y133.041 E9.60652
G1 X95.283 Y132.917 E9.61234
G1 X94.654 Y132.616 E9.62474
G1 X94.02 Y132.215 E9.63807
G1 X93.521 Y131.854 E9.64902
G1 X92.98 Y131.413 E9.66143
G1 X92.474 Y130.891 E9.67435
G1 X92.265 Y130.648 E9.68005
G1 X91.841 Y130.094 E9.69245
G1 X91.455 Y129.44 E9.70595
G1 X91.174 Y128.888 E9.71696
G1 X90.893 Y128.249 E9.72937
G1 X90.686 Y127.575 E9.7419
G1 X90.61 Y127.265 E9.74757
G1 X90.483 Y126.579 E9.75998
G1 X90.435 Y125.819 E9.77351
G1 X90.41 Y89.505 E10.41903
G1 X90.483 Y88.559 E10.4359
G1 X90.578 Y87.952 E10.44682
G1 X90.725 Y87.27 E10.45922
G1 X90.956 Y86.594 E10.47192
G1 X91.08 Y86.29 E10.47775
G1 X91.38 Y85.66 E10.49016
G1 X91.785 Y85.02 E10.50362
G1 X92.146 Y84.521 E10.51457
G1 X92.587 Y83.98 E10.52698
M204 S625
M205 X6 Y6
G0 F5454.5 X92.912 Y84.247
M204 S500
M205 X5 Y5
G1 F1200 X93.383 Y83.792 E10.53862
G1 X93.626 Y83.583 E10.54431
G1 X94.161 Y83.175 E10.55627
G1 X94.751 Y82.829 E10.56843
G1 X95.303 Y82.548 E10.57944
G1 X95.92 Y82.279 E10.59141
G1 X96.529 Y82.093 E10.60273
G1 X96.84 Y82.017 E10.60842
G1 X97.502 Y81.896 E10.62038
G1 X98.167 Y81.855 E10.63222
G1 X105.534 Y81.83 E10.76318
G1 X134.501 Y81.83 E11.2781
G1 X135.173 Y81.87 E11.29006
G1 X135.82 Y81.986 E11.30175
G1 X136.727 Y82.203 E11.31833
G1 X137.372 Y82.398 E11.3303
G1 X137.988 Y82.668 E11.34226
G1 X138.735 Y83.126 E11.35784
G1 X139.236 Y83.489 E11.36883
G1 X139.756 Y83.915 E11.38078
G1 X140.209 Y84.384 E11.39237
G1 X140.417 Y84.626 E11.39805
G1 X140.825 Y85.162 E11.41002
G1 X141.168 Y85.746 E11.42206
G1 X141.45 Y86.299 E11.43309
G1 X141.72 Y86.916 E11.44507
G1 X141.906 Y87.525 E11.45639
G1 X141.982 Y87.835 E11.46206
G1 X142.103 Y88.497 E11.47402
G1 X142.145 Y89.166 E11.48594
G1 X142.17 Y96.534 E11.61691
G1 X142.17 Y125.499 E12.13179
G1 X142.102 Y126.376 E12.14743
G1 X142.007 Y126.983 E12.15835
G1 X141.863 Y127.64 E12.17031
G1 X141.655 Y128.247 E12.18171
G1 X141.531 Y128.551 E12.18755
G1 X141.24 Y129.159 E12.19953
G1 X140.876 Y129.732 E12.2116
G1 X140.516 Y130.23 E12.22252
G1 X140.09 Y130.751 E12.23448
G1 X139.62 Y131.206 E12.24611
G1 X139.376 Y131.416 E12.25183
G1 X138.84 Y131.824 E12.26381
G1 X138.249 Y132.171 E12.27599
G1 X137.697 Y132.452 E12.287
G1 X137.08 Y132.721 E12.29897
G1 X136.475 Y132.906 E12.31021
G1 X136.165 Y132.982 E12.31589
G1 X135.503 Y133.103 E12.32785
G1 X134.942 Y133.144 E12.33785
G1 X133.824 Y133.169 E12.35773
G1 X133.697 Y133.17 E12.35998
G1 X98.502 Y133.17 E12.98561
G1 X97.628 Y133.102 E13.00119
G1 X97.019 Y133.007 E13.01215
G1 X96.361 Y132.864 E13.02412
G1 X95.745 Y132.653 E13.03569
G1 X95.442 Y132.529 E13.04151
G1 X94.836 Y132.237 E13.05347
G1 X94.267 Y131.875 E13.06546
G1 X93.768 Y131.514 E13.07641
G1 X93.247 Y131.088 E13.08837
G1 X92.792 Y130.617 E13.10001
G1 X92.583 Y130.374 E13.10571
G1 X92.175 Y129.839 E13.11767
G1 X91.829 Y129.249 E13.12983
G1 X91.548 Y128.697 E13.14084
G1 X91.279 Y128.08 E13.1528
G1 X91.094 Y127.475 E13.16405
G1 X91.018 Y127.165 E13.16972
G1 X90.897 Y126.503 E13.18168
G1 X90.855 Y125.819 E13.19387
G1 X90.83 Y89.505 E13.83938
G1 X90.898 Y88.624 E13.85509
G1 X90.993 Y88.017 E13.86601
G1 X91.137 Y87.36 E13.87797
G1 X91.345 Y86.753 E13.88937
G1 X91.469 Y86.449 E13.89521
G1 X91.76 Y85.841 E13.90719
G1 X92.125 Y85.267 E13.91928
G1 X92.486 Y84.768 E13.93023
G1 X92.912 Y84.247 E13.94219
M204 S625
M205 X6 Y6
G0 F5454.5 X93.238 Y84.513
M204 S500
M205 X5 Y5
G1 F1200 X93.657 Y84.111 E13.95252
G1 X93.9 Y83.902 E13.95821
G1 X94.416 Y83.51 E13.96973
G1 X94.941 Y83.203 E13.98054
G1 X95.493 Y82.922 E13.99155
G1 X96.088 Y82.665 E14.00308
G1 X96.629 Y82.501 E14.01312
G1 X96.94 Y82.425 E14.01882
G1 X97.577 Y82.31 E14.03032
G1 X98.168 Y82.275 E14.04085
G1 X105.535 Y82.25 E14.1718
G1 X134.501 Y82.25 E14.6867
G1 X135.148 Y82.29 E14.69822
G1 X135.723 Y82.394 E14.70861
G1 X136.63 Y82.611 E14.72519
G1 X137.249 Y82.8 E14.73669
G1 X137.841 Y83.065 E14.74822
G1 X138.488 Y83.466 E14.76175
G1 X138.989 Y83.829 E14.77275
G1 X139.489 Y84.24 E14.78426
G1 X139.89 Y84.658 E14.79455
G1 X140.098 Y84.9 E14.80023
G1 X140.49 Y85.416 E14.81175
G1 X140.794 Y85.937 E14.82247
G1 X141.076 Y86.49 E14.8335
G1 X141.334 Y87.084 E14.84501
G1 X141.498 Y87.625 E14.85506
G1 X141.574 Y87.935 E14.86074
G1 X141.689 Y88.572 E14.87224
G1 X141.725 Y89.167 E14.88284
G1 X141.75 Y96.535 E15.01381
G1 X141.75 Y125.499 E15.52868
G1 X141.687 Y126.311 E15.54315
G1 X141.592 Y126.918 E15.55408
G1 X141.452 Y127.55 E15.56558
G1 X141.266 Y128.089 E15.57572
G1 X141.142 Y128.393 E15.58155
G1 X140.861 Y128.976 E15.59306
G1 X140.536 Y129.486 E15.60381
G1 X140.176 Y129.984 E15.61473
G1 X139.765 Y130.484 E15.62624
G1 X139.346 Y130.887 E15.63657
G1 X139.102 Y131.097 E15.64229
G1 X138.586 Y131.489 E15.65381
G1 X138.059 Y131.797 E15.66466
G1 X137.507 Y132.078 E15.67567
G1 X136.912 Y132.335 E15.6872
G1 X136.375 Y132.498 E15.69717
G1 X136.065 Y132.574 E15.70284
G1 X135.428 Y132.689 E15.71435
G1 X134.932 Y132.724 E15.72319
G1 X133.814 Y132.749 E15.74307
G1 X133.697 Y132.75 E15.74515
G1 X98.502 Y132.75 E16.37077
G1 X97.693 Y132.687 E16.3852
G1 X97.084 Y132.592 E16.39615
G1 X96.451 Y132.453 E16.40767
G1 X95.905 Y132.264 E16.41795
G1 X95.602 Y132.14 E16.42377
G1 X95.018 Y131.858 E16.43529
G1 X94.513 Y131.535 E16.44595
G1 X94.014 Y131.174 E16.4569
G1 X93.513 Y130.762 E16.46843
G1 X93.111 Y130.343 E16.47875
G1 X92.902 Y130.1 E16.48445
G1 X92.51 Y129.584 E16.49597
G1 X92.203 Y129.059 E16.50678
G1 X91.922 Y128.507 E16.51779
G1 X91.665 Y127.912 E16.52931
G1 X91.502 Y127.375 E16.53928
G1 X91.426 Y127.065 E16.54496
G1 X91.311 Y126.428 E16.55646
G1 X91.275 Y125.819 E16.56731
G1 X91.25 Y89.505 E17.21283
G1 X91.313 Y88.689 E17.22737
G1 X91.408 Y88.082 E17.2383
G1 X91.548 Y87.45 E17.2498
G1 X91.734 Y86.911 E17.25994
G1 X91.858 Y86.607 E17.26577
G1 X92.139 Y86.024 E17.27728
G1 X92.465 Y85.513 E17.28805
G1 X92.826 Y85.014 E17.299
G1 X93.238 Y84.513 E17.31053
M204 S625
M205 X6 Y6
G0 F5454.5 X93.562 Y84.781
M204 S500
M205 X5 Y5
G1 F1200 X93.93 Y84.429 E17.31958
G1 X94.173 Y84.22 E17.32528
G1 X94.67 Y83.846 E17.33634
G1 X95.132 Y83.578 E17.34583
G1 X95.684 Y83.297 E17.35684
G1 X96.254 Y83.051 E17.36788
G1 X96.728 Y82.909 E17.37667
G1 X97.039 Y82.833 E17.38237
G1 X97.651 Y82.725 E17.39341
G1 X98.17 Y82.695 E17.40265
G1 X105.537 Y82.67 E17.53361
G1 X134.501 Y82.67 E18.04847
G1 X135.121 Y82.71 E18.05952
G1 X135.625 Y82.803 E18.06863
G1 X136.532 Y83.02 E18.08521
G1 X137.126 Y83.203 E18.09625
G1 X137.691 Y83.461 E18.10729
G1 X138.242 Y83.806 E18.11885
G1 X138.743 Y84.169 E18.12985
G1 X139.222 Y84.565 E18.1409
G1 X139.572 Y84.932 E18.14991
G1 X139.78 Y85.174 E18.15558
G1 X140.154 Y85.67 E18.16663
G1 X140.42 Y86.128 E18.17604
G1 X140.702 Y86.681 E18.18708
G1 X140.948 Y87.251 E18.19811
G1 X141.09 Y87.725 E18.20691
G1 X141.166 Y88.035 E18.21258
G1 X141.275 Y88.647 E18.22363
G1 X141.305 Y89.169 E18.23293
G1 X141.33 Y96.537 E18.3639
G1 X141.33 Y125.499 E18.87873
G1 X141.272 Y126.246 E18.89205
G1 X141.177 Y126.853 E18.90297
G1 X141.042 Y127.459 E18.914
G1 X140.877 Y127.93 E18.92287
G1 X140.753 Y128.234 E18.92871
G1 X140.482 Y128.793 E18.93975
G1 X140.195 Y129.24 E18.9492
G1 X139.835 Y129.738 E18.96012
G1 X139.44 Y130.217 E18.97116
G1 X139.072 Y130.569 E18.98021
G1 X138.828 Y130.779 E18.98593
G1 X138.332 Y131.153 E18.99697
G1 X137.868 Y131.422 E19.00651
G1 X137.316 Y131.703 E19.01752
G1 X136.746 Y131.949 E19.02855
G1 X136.275 Y132.09 E19.03729
G1 X135.965 Y132.166 E19.04297
G1 X135.353 Y132.275 E19.05402
G1 X134.923 Y132.304 E19.06168
G1 X133.805 Y132.329 E19.08156
G1 X133.697 Y132.33 E19.08348
G1 X98.502 Y132.33 E19.7091
G1 X97.758 Y132.272 E19.72237
G1 X97.149 Y132.177 E19.73332
G1 X96.542 Y132.042 E19.74438
G1 X96.064 Y131.875 E19.75338
G1 X95.761 Y131.751 E19.7592
G1 X95.202 Y131.479 E19.77025
G1 X94.759 Y131.194 E19.77961
G1 X94.26 Y130.833 E19.79056
G1 X93.781 Y130.438 E19.8016
G1 X93.429 Y130.07 E19.81065
G1 X93.22 Y129.827 E19.81635
G1 X92.846 Y129.33 E19.8274
G1 X92.578 Y128.868 E19.8369
G1 X92.297 Y128.316 E19.84791
G1 X92.051 Y127.746 E19.85894
G1 X91.91 Y127.275 E19.86768
G1 X91.834 Y126.965 E19.87336
G1 X91.725 Y126.353 E19.88441
G1 X91.695 Y125.818 E19.89393
G1 X91.67 Y89.504 E20.53945
G1 X91.728 Y88.754 E20.55282
G1 X91.823 Y88.147 E20.56374
G1 X91.958 Y87.541 E20.57478
G1 X92.123 Y87.07 E20.58365
G1 X92.247 Y86.766 E20.58949
G1 X92.518 Y86.207 E20.60053
G1 X92.806 Y85.759 E20.61
G1 X93.167 Y85.26 E20.62094
G1 X93.562 Y84.781 E20.63198
M204 S625
M205 X6 Y6
G0 F5454.5 X93.887 Y85.05
M204 S500
M205 X5 Y5
G1 F1200 X94.204 Y84.748 E20.63976
G1 X94.447 Y84.539 E20.64546
